images/about-us/brush.svg

<?xml version="1.0" encoding="UTF-8"?>
<svg width="70px" height="44px" viewBox="0 0 70 44" version="1.1" xmlns="http://www.w3.org/2000/svg" xmlns:xlink="http://www.w3.org/1999/xlink">
    <!-- Generator: sketchtool 50.2 (55047) - http://www.bohemiancoding.com/sketch -->
    <title>8152A30C-88C3-4EF5-ADB3-EA0716BDA8B3</title>
    <desc>Created with sketchtool.</desc>
    <defs>
        <polygon id="path-1" points="16.0472 0.0002 0.5712 8.9942 28.9462 25.3762 44.4232 16.3832 44.4232 16.3822"></polygon>
        <path d="M0.983,2.344 L0.975,5.605 C3.044,4.1 6.519,3.524 9.654,4.134 L9.663,0.873 C8.833,0.712 7.98,0.634 7.135,0.634 C4.788,0.634 2.506,1.238 0.983,2.344" id="path-3"></path>
        <path d="M0.077,4.0981 C0.136,4.3451 0.541,4.5061 0.959,4.5071 L0.965,4.5071 C1.07,4.5071 1.176,4.4961 1.277,4.4751 L1.286,1.2141 C0.781,1.3231 0.16,1.1471 0.086,0.8381" id="path-5"></path>
        <path d="M0.077,4.0981 C0.136,4.3451 0.541,4.5061 0.959,4.5071 L0.965,4.5071 C1.07,4.5071 1.176,4.4961 1.277,4.4751 L1.286,1.2141 C0.781,1.3231 0.16,1.1471 0.086,0.8381" id="path-7"></path>
        <path d="M0.077,4.0981 C0.136,4.3451 0.541,4.5061 0.959,4.5071 L0.965,4.5071 C1.07,4.5071 1.176,4.4961 1.277,4.4751 L1.286,1.2141 C0.781,1.3231 0.16,1.1471 0.086,0.8381" id="path-9"></path>
        <path d="M0.077,4.0981 C0.136,4.3451 0.541,4.5061 0.959,4.5071 L0.965,4.5071 C1.07,4.5071 1.176,4.4961 1.277,4.4751 L1.286,1.2141 C0.781,1.3231 0.16,1.1471 0.086,0.8381" id="path-11"></path>
        <path d="M0.077,4.0981 C0.136,4.3451 0.541,4.5061 0.959,4.5071 L0.965,4.5071 C1.07,4.5071 1.176,4.4961 1.277,4.4751 L1.286,1.2141 C0.781,1.3231 0.16,1.1471 0.086,0.8381" id="path-13"></path>
        <polygon id="path-15" points="0.946 9.3766 0.938 12.6376 16.414 3.6436 16.423 0.6796 16.423 0.3836"></polygon>
    </defs>
    <g id="Illustration" stroke="none" stroke-width="1" fill="none" fill-rule="evenodd">
        <g id="ill" transform="translate(-783.000000, -456.000000)">
            <g id="Group-2" transform="translate(109.000000, 90.000000)">
                <g id="Group-5" transform="translate(674.000000, 366.000000)">
                    <g id="Path-4" transform="translate(25.000000, 0.000000)">
                        <mask id="mask-2" fill="white">
                            <use xlink:href="#path-1"></use>
                        </mask>
                        <use id="Mask" fill="#F4F4F4" xlink:href="#path-1"></use>
                        <path d="M12,2 C12,4 16,6 17,6 C18,6 23.5,6.5 23.5,9.5 C23.5,12.5 24.5,17 29,16 C33.5,15 37,13 38,15 C38.6666667,16.3333333 39,17.8333333 39,19.5 L42,23 L49.5,17 L17,-4 C13.6666667,-1.33333333 12,0.666666667 12,2 Z" fill="#FFE074" mask="url(#mask-2)"></path>
                    </g>
                    <polygon id="Fill-4" fill="#9EA6BA" points="22.7374 10.6406 25.5554 9.0026 53.9324 25.3856 51.1134 27.0236"></polygon>
                    <polygon id="Fill-5" fill="#7A7F91" points="53.9327 25.3857 53.9227 28.6467 51.1037 30.2837 51.1137 27.0237"></polygon>
                    <path d="M19.9131,14.0263 L19.9031,17.2873 C19.7831,17.0563 19.7261,16.8233 19.7261,16.5923 L19.7351,13.3333 C19.7341,13.5623 19.7931,13.7963 19.9131,14.0263 Z M23.3545,20.4619 L23.3455,23.7229 L19.9035,17.2869 L19.9135,14.0259 L23.3545,20.4619 Z M23.7217,21.8535 L23.7127,25.1145 C23.7137,24.6505 23.5947,24.1815 23.3457,23.7225 L23.3547,20.4615 C23.6037,20.9205 23.7237,21.3895 23.7217,21.8535 Z" id="Combined-Shape" fill="#70757A"></path>
                    <g id="Group-31" transform="translate(24.000000, 25.507100)">
                        <mask id="mask-4" fill="white">
                            <use xlink:href="#path-3"></use>
                        </mask>
                        <g id="Clip-30"></g>
                        <path d="M5.7969,0.6989 L5.7869,3.9599 C5.4429,3.9939 5.1029,4.0419 4.7699,4.1009 L4.7779,0.8419 C5.1119,0.7809 5.4519,0.7329 5.7969,0.6989" id="Fill-29" fill="#9499A0" mask="url(#mask-4)"></path>
                    </g>
                    <path d="M0.077,43.0981 C0.031,43.0351 0,42.9781 0,42.9211 L0.009,39.6611 C0.009,39.7161 0.039,39.7761 0.086,39.8381 C0.16,40.1471 0.781,40.3231 1.286,40.2141 L1.277,43.4751 C1.176,43.4961 1.07,43.5071 0.965,43.5071 L0.959,43.5071 C0.541,43.5061 0.136,43.3451 0.077,43.0981 Z M6.11510276,39.7612 L6.1061,42.697 L1.2771,43.475 L1.2861,40.214 L6.1161,39.436 C8.26506012,39.077077 10.2080218,38.333085 11.617,37.3641 L11.607,40.6241 C10.2,41.5941 8.255,42.3381 6.107,42.6971 L6.11510276,39.7612 Z M24.9797912,29.1591 L24.9744,31.1125 L11.6074,40.6235 L11.6174,37.3645 L24.9829983,27.8517859 L24.983,27.8511 C26.506,26.7451 28.788,26.1411 31.135,26.1411 C31.98,26.1411 32.833,26.2191 33.663,26.3801 L45.2198,28.6201 L45.2108,31.8811 L33.6538,29.6411 C30.5188523,29.0311245 27.043956,29.607132 24.975,31.1121 C24.9749334,31.1121023 24.9748667,31.1121512 24.9748,31.1122 L24.9765978,30.4608 L24.9797912,29.1591 Z M49.306,31.3291 C48.241,31.9481 46.67,32.1571 45.211,31.8811 L45.22,28.6201 C46.6776804,28.8960395 48.2503105,28.6881912 49.3152997,28.0685076 L51.1133,27.0234 L51.1033,30.2844 L49.3060003,31.328993 Z" id="Combined-Shape" fill="#C4CCD8"></path>
                    <g id="Group-143" transform="translate(0.000000, 39.507100)"></g>
                    <path d="M0.077,43.0981 C0.136,43.3451 0.541,43.5061 0.959,43.5071 L0.965,43.5071 C1.07,43.5071 1.176,43.4961 1.277,43.4751 L1.286,40.2141 C0.781,40.3231 0.16,40.1471 0.086,39.8381" id="Clip-146"></path>
                    <path d="M0.077,43.0981 C0.136,43.3451 0.541,43.5061 0.959,43.5071 L0.965,43.5071 C1.07,43.5071 1.176,43.4961 1.277,43.4751 L1.286,40.2141 C0.781,40.3231 0.16,40.1471 0.086,39.8381" id="Clip-149"></path>
                    <g id="Clip-155-+-Clip-158-+-Clip-161-+-Clip-164-+-Clip-167-+-Clip-170-Mask" transform="translate(0.000000, 39.000000)">
                        <mask id="mask-6" fill="white">
                            <use xlink:href="#path-5"></use>
                        </mask>
                        <g id="Mask"></g>
                        <mask id="mask-8" fill="white">
                            <use xlink:href="#path-7"></use>
                        </mask>
                        <g id="Clip-155"></g>
                        <mask id="mask-10" fill="white">
                            <use xlink:href="#path-9"></use>
                        </mask>
                        <g id="Clip-158"></g>
                        <mask id="mask-12" fill="white">
                            <use xlink:href="#path-11"></use>
                        </mask>
                        <g id="Clip-161"></g>
                        <mask id="mask-14" fill="white">
                            <use xlink:href="#path-13"></use>
                        </mask>
                        <g id="Clip-164"></g>
                    </g>
                    <path d="M22.7374,10.6409 L51.1134,27.0229 L49.3154,28.0679 C48.2514,28.6879 46.6784,28.8959 45.2194,28.6199 L33.6634,26.3799 C30.5284,25.7709 27.0534,26.3469 24.9834,27.8519 L11.6174,37.3639 C10.2084,38.3329 8.2644,39.0769 6.1164,39.4369 L1.2864,40.2139 C0.7814,40.3229 0.1604,40.1469 0.0864,39.8379 C-0.0006,39.7209 -0.0306,39.6209 0.0854,39.5209 L1.4974,36.6039 C1.6104,36.3359 1.813,35.8839 2,35.6249 C2.63,34.7729 3.5614,34.1789 4.7844,33.5529 L21.0304,25.3179 C23.3754,24.1059 24.3024,22.2089 23.3544,20.4619 L19.9134,14.0259 C19.4754,13.1899 19.8604,12.3129 20.8954,11.7109 L22.7374,10.6409 Z" id="Fill-176" fill="#DBE2EA"></path>
                    <path d="M5.8924,35.6249 C5.3174,35.9599 5.3054,36.5199 5.8994,36.8619 C6.4644,37.1879 7.4454,37.1879 8.0204,36.8539 C8.6104,36.5119 8.5924,35.9509 8.0284,35.6249 C7.4344,35.2819 6.4824,35.2819 5.8924,35.6249 Z" id="Path" fill="#999DA4"></path>
                    <g id="Path-6" transform="translate(53.000000, 16.000000)">
                        <mask id="mask-16" fill="white">
                            <use xlink:href="#path-15"></use>
                        </mask>
                        <use id="Mask" fill="#EAEAEA" xlink:href="#path-15"></use>
                        <path d="M11,3.5 C11,5 10.5,7.5 12,7.5 C13,7.5 15.5,5.33333333 19.5,1 L17,-1 C13,1 11,2.5 11,3.5 Z" fill="#FEC502" mask="url(#mask-16)"></path>
                    </g>
                </g>
            </g>
        </g>
    </g>
</svg>

<svg xmlns="http://www.w3.org/2000/svg" width="70" height="44" xmlns:xlink="http://www.w3.org/1999/xlink"><title>8152A30C-88C3-4EF5-ADB3-EA0716BDA8B3</title><desc>Created with sketchtool.</desc><defs><path id="a" d="M16.05 0L.57 9l28.38 16.38 15.47-9z"/><path id="c" d="M.98 2.34V5.6C3.04 4.1 6.5 3.53 9.64 4.14V.87C8.84.7 8 .63 7.14.63c-2.34 0-4.62.6-6.15 1.7"/><path id="e" d="M.08 4.1c.06.25.46.4.88.4.1 0 .22 0 .32-.02V1.2C.8 1.33.17 1.16.1.85"/><path id="f" d="M.08 4.1c.06.25.46.4.88.4.1 0 .22 0 .32-.02V1.2C.8 1.33.17 1.16.1.85"/><path id="g" d="M.08 4.1c.06.25.46.4.88.4.1 0 .22 0 .32-.02V1.2C.8 1.33.17 1.16.1.85"/><path id="h" d="M.08 4.1c.06.25.46.4.88.4.1 0 .22 0 .32-.02V1.2C.8 1.33.17 1.16.1.85"/><path id="i" d="M.08 4.1c.06.25.46.4.88.4.1 0 .22 0 .32-.02V1.2C.8 1.33.17 1.16.1.85"/><path id="j" d="M.95 9.38v3.26l15.46-9 .02-2.96v-.3z"/></defs><g fill="none"><g><g><g><g transform="translate(25 0)"><mask id="b"><use xlink:href="#a"/></mask><use id="Mask" fill="#F4F4F4" xlink:href="#a"/><path fill="#FFE074" d="M12 2c0 2 4 4 5 4s6.5.5 6.5 3.5 1 7.5 5.5 6.5 8-3 9-1c.67 1.33 1 2.83 1 4.5l3 3.5 7.5-6L17-4c-3.33 2.67-5 4.67-5 6z" mask="url(#b)"/></g><path fill="#9EA6BA" d="M22.74 10.64L25.56 9l28.37 16.4L51.1 27z"/><path fill="#7A7F91" d="M53.93 25.4v3.25l-2.83 1.63v-3.26z"/><path id="Combined-Shape" fill="#70757A" d="M19.9 14.03v3.26c-.12-.24-.17-.48-.17-.7v-3.27c0 .23.06.47.18.7zm3.45 6.43v3.26L19.9 17.3v-3.27l3.45 6.43zm.37 1.4v3.25c0-.45-.13-.92-.37-1.38v-3.26c.25.46.37.93.37 1.4z"/><g transform="translate(24 25.507)"><mask id="d"><use xlink:href="#c"/></mask><path fill="#9499A0" d="M5.8.7v3.26c-.36.03-.7.08-1.03.14V.84C5.12.78 5.46.74 5.8.7" mask="url(#d)"/></g><path fill="#C4CCD8" d="M.08 43.1c-.05-.06-.08-.12-.08-.18v-3.26c0 .06.04.12.1.18.06.3.68.48 1.2.37l-.02 3.28c-.1.02-.2.03-.32.03-.42 0-.82-.15-.88-.4zm6.04-3.34v2.94l-4.84.77v-3.26l4.84-.76c2.15-.36 4.1-1.1 5.5-2.08v3.26c-1.42.97-3.36 1.72-5.5 2.08v-2.94zm18.86-10.6v1.95L11.6 40.63l.02-3.26 13.36-9.5c1.53-1.1 3.8-1.72 6.16-1.72.84 0 1.7.08 2.52.24l11.56 2.24v3.26l-11.57-2.24c-3.13-.6-6.6-.03-8.67 1.47v-1.94zm24.33 2.17c-1.06.62-2.63.83-4.1.55l.02-3.26c1.46.28 3.03.07 4.1-.55l1.8-1.05-.02 3.26-1.8 1.05z"/><path d="M.08 43.1c.06.25.46.4.88.4.1 0 .22 0 .32-.02V40.2c-.5.12-1.12-.05-1.2-.36"/><path d="M.08 43.1c.06.25.46.4.88.4.1 0 .22 0 .32-.02V40.2c-.5.12-1.12-.05-1.2-.36"/><g transform="translate(0 39)"><mask><use xlink:href="#e"/></mask><mask><use xlink:href="#f"/></mask><mask><use xlink:href="#g"/></mask><mask><use xlink:href="#h"/></mask><mask><use xlink:href="#i"/></mask></g><path fill="#DBE2EA" d="M22.74 10.64L51.1 27.02l-1.78 1.05c-1.07.62-2.64.83-4.1.55l-11.56-2.24c-3.13-.6-6.6-.03-8.68 1.47l-13.36 9.5c-1.4.98-3.36 1.73-5.5 2.1l-4.83.76c-.52.12-1.14-.05-1.2-.36-.1-.12-.13-.22 0-.32l1.4-2.92c.1-.26.3-.72.5-.98.63-.85 1.56-1.44 2.78-2.07l16.25-8.23c2.35-1.2 3.27-3.1 2.32-4.86l-3.44-6.43c-.42-.84-.04-1.72 1-2.32l1.84-1.06z"/><path fill="#999DA4" d="M5.9 35.62c-.58.34-.6.9 0 1.24.56.33 1.55.33 2.12 0 .6-.35.57-.9 0-1.24-.6-.34-1.54-.34-2.13 0z"/><g transform="translate(53 16)"><mask id="k"><use xlink:href="#j"/></mask><use fill="#EAEAEA" xlink:href="#j"/><path fill="#FEC502" d="M11 3.5c0 1.5-.5 4 1 4 1 0 3.5-2.17 7.5-6.5L17-1c-4 2-6 3.5-6 4.5z" mask="url(#k)"/></g></g></g></g></g></svg>
